X:1
T:Title
%%score { ( 1 3 ) | 2 }
L:1/8
M:4/4
K:F
V:1 treble nm="Grand Piano"
V:3 treble 
V:2 bass 
V:1
 z4 z2[Q:1/4=92] C>C | F>F F>G A2 A>G | F>F d>A c2 (3ccc | c6 z2 | A6 z2 | F>F F>G A2 A>G | %6
 F>F d>A c2 (3ccc | c6 z2 |[M:7/8] z2 F- F- F3 |[M:1/4] A>c |[M:4/4] [Fd]>[Fd] [Fd]>f A2 (3AGF | %11
 c>c (3dcA c2 (3ccc | c6 z2 | A6 z2 | [Fd]>[Fd] [Fd]>f A2 (3AGF | c>c (3dcA c2 (3ccc | c6 z2 | %17
[M:3/4] [A,F]2 (3[DF-][CEF-][B,DF-] F2 |] %18
V:2
 z4 z2 [F,A,]>[F,A,] | [F,A,C]>[F,A,C] [F,A,C]>[F,B,C] [F,CF]2 [F,CF]>[F,B,F] | %2
 [F,A,]>[F,A,] [F,B,F]>[F,CF] [F,A,F]2 z2 | z2 (3[C,G,][C,G,][C,G,] [C,G,]2 z2 | %4
 z2 (3[F,C][F,C][F,C] [F,C]2 [F,A,]>[F,A,] | %5
 [F,A,C]>[F,A,C] [F,A,C]>[F,B,C] [F,CF]2 [F,CF]>[F,B,F] | %6
 [F,A,]>[F,A,] [F,B,F]>[F,CF] [F,A,F]2 z2 | z2 (3[C,G,][C,G,][C,G,] [C,C]2 (3[C,B,][C,C][C,B,] | %8
[M:7/8] [F,A,]2 [F,D]/[F,C][F,B,]/ [F,A,]3 |[M:1/4] [F,CF]>[F,A,F] | %10
[M:4/4] [B,,B,]>[B,,B,] [B,,B,]>[B,,B,DF] [F,CF]2 (3[F,-CF-][F,B,F][F,A,] | %11
 [F,A,F]>[F,A,F] (3[F,-B,F-][F,A,F][F,CF] [F,A,F]2 z2 | %12
 z2 (3[C,G,][C,G,][C,G,] [C,G,]2 (3[C,C][C,C][C,C] | %13
 [F,CF]2 (3[F,C][F,C][F,C] [F,C]2 [F,CF]>[F,A,F] | %14
 [B,,B,]>[B,,B,] [B,,B,]>[B,,B,DF] [F,CF]2 (3[F,-CF-][F,B,F][F,A,] | %15
 [F,A,F]>[F,A,F] (3[F,-B,F-][F,A,F][F,CF] [F,A,F]2 z2 | z2 (3[C,G,][C,G,][C,G,] [C,C]2 (3C,C,C, | %17
[M:3/4] F,2 (3B,,B,,B,, F,,2 |] %18
V:3
 x8 | x8 | x8 | z2 (3EEE E2 (3GAB | z2 (3FFF F2 C>C | x8 | x8 | z2 (3EEE E2 (3[EG][EA][EG] | %8
[M:7/8] F2 z/ ED/ C3 |[M:1/4] x2 |[M:4/4] x8 | x8 | z2 (3EEE E2 (3[EG][FA][GB] | z2 (3FFF F2 A>c | %14
 x8 | x8 | z2 (3EEE E2 (3[B,EG][CEA][B,EG] |[M:3/4] z2 z2 [F,A,C]2 |] %18

